svg/fluentui-system-icons/ic_fluent_split_horizontal_32_filled.svg

<svg width="32" height="32" viewBox="0 0 32 32" fill="none" xmlns="http://www.w3.org/2000/svg">
<path d="M3 15C2.44772 15 2 15.4477 2 16C2 16.5523 2.44772 17 3 17L29 17C29.5523 17 30 16.5523 30 16C30 15.4477 29.5523 15 29 15L3 15ZM6 26.5V18.5H26V26.5C26 28.433 24.433 30 22.5 30H9.5C7.567 30 6 28.433 6 26.5ZM26 13.5V5.5C26 3.567 24.433 2 22.5 2H9.5C7.567 2 6 3.567 6 5.5V13.5H26Z" fill="#212121"/>
</svg>

<svg xmlns="http://www.w3.org/2000/svg" width="32" height="32"><path d="M3 15a1 1 0 1 0 0 2h26a1 1 0 1 0 0-2H3Zm3 11.5v-8h20v8a3.5 3.5 0 0 1-3.5 3.5h-13A3.5 3.5 0 0 1 6 26.5Zm20-13v-8A3.5 3.5 0 0 0 22.5 2h-13A3.5 3.5 0 0 0 6 5.5v8h20Z"/></svg>
